src/icons/sm/beach.svg

<svg width="24" height="24" viewBox="0 0 24 24" fill="none" xmlns="http://www.w3.org/2000/svg">
<path d="M12.2373 7.68758C12.903 9.0785 14.0474 13.4224 13.5381 15.8263C13.4465 16.2585 12.985 16.4724 12.5698 16.3214L10.3301 15.5054L8.65283 20.1168C9.75056 20.9045 11.0032 21.4716 12.353 21.4718H14.4243C14.9536 21.4718 15.382 21.9006 15.3823 22.4298C15.3823 22.496 15.3284 22.5499 15.2622 22.5499H2.00684C1.72689 22.5497 1.5 22.323 1.5 22.043C1.5 21.6694 1.59956 21.3011 1.80615 20.9898C2.83414 19.4408 4.41848 17.7934 6.93457 18.9874L8.45068 14.8214L6.43213 14.0875C6.01735 13.9361 5.80122 13.4753 6.00879 13.0855C7.16393 10.9167 10.8334 8.32504 12.2373 7.68758Z" fill="black"/>
<path d="M12.2373 7.68758C15.5272 8.88508 17.9368 13.1674 17.5312 16.4386C17.4223 17.3162 16.4698 17.7416 15.6226 17.4332L15.3354 17.3292C15.053 17.2263 14.8766 16.944 14.9092 16.6451C15.1537 14.4029 15.0554 9.89656 12.2373 7.68758Z" fill="black"/>
<path d="M2.55615 10.9879C4.34818 8.22129 8.94732 6.49012 12.2373 7.68758C8.65849 7.56823 5.6866 10.9573 4.43262 12.8321C4.26547 13.082 3.94903 13.1839 3.6665 13.0811L3.37939 12.9771C2.53212 12.6687 2.07544 11.7302 2.55615 10.9879Z" fill="black"/>
<path d="M12.167 6.22713C13.0001 4.89618 14.6191 4.18186 16.229 4.57186C18.2413 5.05965 19.4774 7.0872 18.9902 9.09969C18.7961 9.901 18.3541 10.5759 17.77 11.0714C16.7263 8.95969 14.8424 7.19602 12.3735 6.29744C12.3051 6.27253 12.2356 6.25046 12.167 6.22713Z" fill="black"/>
<path d="M21.0337 8.63094L21.9448 8.85213C22.4473 8.97438 22.7563 9.48025 22.6348 9.98299C22.5127 10.4859 22.0055 10.7962 21.5024 10.6744L20.5913 10.4532C20.0884 10.3312 19.7797 9.82389 19.9014 9.32088C20.0234 8.81785 20.5306 8.50906 21.0337 8.63094Z" fill="black"/>
<path d="M20.4595 3.9991C20.9014 3.73001 21.479 3.8694 21.7485 4.31111C22.0182 4.75311 21.877 5.33053 21.4351 5.60018L20.6353 6.08943C20.1934 6.35844 19.6172 6.21762 19.3477 5.77596C19.0781 5.33398 19.2178 4.75801 19.6597 4.48836L20.4595 3.9991Z" fill="black"/>
<path d="M11.4404 1.81356C11.8822 1.54479 12.457 1.68564 12.7266 2.12703L13.2173 2.92684C13.4864 3.3687 13.3454 3.94483 12.9038 4.21443C12.462 4.4838 11.886 4.34536 11.6162 3.90389L11.1284 3.10408C10.8588 2.66206 10.9984 2.08318 11.4404 1.81356Z" fill="black"/>
<path d="M17.1108 0.927325C17.6139 1.0492 17.9224 1.55655 17.8008 2.05965L17.5811 2.97078C17.4592 3.47366 16.9531 3.78197 16.4502 3.66072C15.9472 3.53888 15.6374 3.03284 15.7588 2.52986L15.9785 1.61727C16.1008 1.11477 16.6081 0.805773 17.1108 0.927325Z" fill="black"/>
</svg>

<svg xmlns="http://www.w3.org/2000/svg" viewBox="0 0 24 24"><path d="M12.237 7.688c.666 1.39 1.81 5.734 1.301 8.138-.091.433-.553.646-.968.495l-2.24-.816-1.677 4.612c1.098.787 2.35 1.355 3.7 1.355h2.071c.53 0 .958.429.958.958a.12.12 0 0 1-.12.12H2.007a.507.507 0 0 1-.507-.507c0-.374.1-.742.306-1.053 1.028-1.55 2.612-3.197 5.129-2.003l1.516-4.166-2.019-.733c-.415-.152-.63-.613-.423-1.002 1.155-2.17 4.824-4.761 6.228-5.398"/><path d="M12.237 7.688c3.29 1.197 5.7 5.48 5.294 8.75-.109.878-1.061 1.304-1.908.995l-.288-.104a.65.65 0 0 1-.426-.684c.245-2.242.146-6.748-2.672-8.957M2.556 10.988c1.792-2.767 6.391-4.498 9.681-3.3-3.579-.12-6.55 3.27-7.804 5.144a.65.65 0 0 1-.766.25l-.288-.105c-.847-.308-1.304-1.247-.823-1.99M12.167 6.227A3.751 3.751 0 0 1 18.99 9.1a3.73 3.73 0 0 1-1.22 1.971c-1.044-2.111-2.928-3.875-5.396-4.774zM21.034 8.63l.91.222a.937.937 0 0 1-.442 1.822l-.91-.22a.938.938 0 0 1 .442-1.823M20.46 4a.939.939 0 0 1 .976 1.601l-.8.488a.938.938 0 0 1-.976-1.6zM11.44 1.814a.936.936 0 0 1 1.287.313l.49.8a.938.938 0 0 1-1.6.977l-.489-.8a.94.94 0 0 1 .312-1.29M17.11.927c.504.122.812.63.69 1.133l-.219.91a.937.937 0 0 1-1.822-.44l.22-.913a.94.94 0 0 1 1.132-.69"/></svg>
